src/components/Icon/assets/arrow-hook-left-up.svg

<svg width="24" height="24" viewBox="0 0 24 24" fill="none" xmlns="http://www.w3.org/2000/svg">
<path fill-rule="evenodd" clip-rule="evenodd" d="M14.5002 8.00012H5.20721L9.18021 4.02612L7.76621 2.61212L2.43921 7.93912C1.85421 8.52412 1.85421 9.47612 2.43921 10.0611L7.76621 15.3871L9.18021 13.9731L5.20721 10.0001H14.5002C16.9812 10.0001 19.0002 12.0191 19.0002 14.5001C19.0002 16.9811 16.9812 19.0001 14.5002 19.0001H10.0002V21.0001H14.5002C18.0842 21.0001 21.0002 18.0841 21.0002 14.5001C21.0002 10.9161 18.0842 8.00012 14.5002 8.00012" fill="#65676A"/>
</svg>

<svg xmlns="http://www.w3.org/2000/svg" width="24" height="24" viewBox="0 0 24 24">
    <path fill="#65676A" fill-rule="evenodd" d="M14.5 8H5.207L9.18 4.026 7.766 2.612 2.44 7.94c-.585.585-.585 1.537 0 2.122l5.327 5.326 1.414-1.414L5.207 10H14.5c2.481 0 4.5 2.02 4.5 4.5 0 2.481-2.019 4.5-4.5 4.5H10v2h4.5c3.584 0 6.5-2.916 6.5-6.5S18.084 8 14.5 8"/>
</svg>
